!!!COM: L. van Beethoven
!!!OTL: Op 59 No 2 3rd Movement - Score
**kern	**dynam	**kern	**dynam	**kern	**dynam	**kern	**dynam	**mxhm
*part4	*part4	*part3	*part3	*part2	*part2	*part1	*part1	*part1
*staff4	*	*staff3	*	*staff2	*	*staff1	*	*
*I"Violoncello.	*	*I"Viola.	*	*I"Violin II.	*	*I"Violin I.	*	*
*clefF4	*	*clefC3	*	*clefG2	*	*clefG2	*	*
*k[f#]	*	*k[f#]	*	*k[f#]	*	*k[f#]	*	*
*e:	*	*e:	*	*e:	*	*e:	*	*
*M3/4	*	*M3/4	*	*M3/4	*	*M3/4	*	*
=1	=1	=1	=1	=1	=1	=1	=1	=1
!	!LO:DY:a	!	!	!	!	!LO:TX:a:B:t=Allegretto	!	!
4EE	pp pp	4G	.	4B	pp	8e'L	pp	i
.	.	.	.	.	.	8b'J	.	.
4r	.	8r	.	8r	.	(4.ee	.	.
.	.	8eL	.	8gL	.	.	.	.
4r	.	8eJ	.	8gJ	.	.	.	.
.	.	8r	.	8r	.	8gg)	.	.
=2!|:	=2!|:	=2!|:	=2!|:	=2!|:	=2!|:	=2!|:	=2!|:	=2!|:
4BB	.	4r	.	4r	.	8r	.	V
.	.	.	.	.	.	8ff#'	.	.
4r	.	8r	.	8r	.	(4.dd#X	.	.
.	.	8d#XL	.	8f#L	.	.	.	.
4r	.	8d#J	.	8f#J	.	.	.	.
.	.	8r	.	8r	.	8b)	.	.
=3	=3	=3	=3	=3	=3	=3	=3	=3
4BB	.	4r	.	4r	.	8r	.	V7
.	.	.	.	.	.	8b'	.	.
4r	.	8r	.	8r	.	(4.cc	.	.
.	.	8d#XL	.	8f#L	.	.	.	.
4r	.	8d#J	.	8f#J	.	.	.	.
.	.	8r	.	8r	.	8a)	.	.
=4	=4	=4	=4	=4	=4	=4	=4	=4
4E	.	4r	.	4r	.	8r	.	i(94)
.	.	.	.	.	.	8a	.	.
4r	.	8r	.	8r	.	4.f#	.	i
.	.	8BL	.	8eL	.	.	.	.
4r	.	8BJ	.	8eJ	.	.	.	.
.	.	8r	.	8r	.	[8g	.	.
=5	=5	=5	=5	=5	=5	=5	=5	=5
4E	.	4r	.	4r	.	8gL]	.	.
.	.	.	.	.	.	8b'J	.	.
4r	.	8r	.	8r	.	4.ee	.	.
.	.	8eL	.	8gL	.	.	.	.
4r	.	8eJ	.	8gJ	.	.	.	.
.	.	8r	.	8r	.	[8gg	.	.
=6	=6	=6	=6	=6	=6	=6	=6	=6
!LO:TX:b:i:t=cresc.	!	!	!	!	!	!LO:TX:b:i:t=cresc.	!	!
4C#X	.	4r	.	4r	.	8ggL]	.	viio/VII
.	.	.	.	.	.	8gg'J	.	.
!	!	!	!	!LO:TX:a:i:t=cresc.	!	!	!	!
4r	.	8r	.	8r	.	4.ccc#X	.	.
!	!	!LO:TX:b:i:t=cresc.	!	!	!	!	!	!
.	.	8eL	.	8gL	.	.	.	.
4r	.	8eJ	.	8gJ	.	.	.	.
.	.	8r	.	8r	.	[8eee	.	.
=7	=7	=7	=7	=7	=7	=7	=7	=7
4AA	f	8r	f	8r	f	8eeeL]	.	V7/VII
.	.	8c#XL 8e	.	8AL 8g	.	8eeeJ	.	.
4r	.	8c#J 8e	.	8AJ 8g	.	4.ggg	f >	.
.	.	8r	.	8r	.	.	.	.
4r	.	4r	.	4r	.	.	.	.
.	.	.	.	.	.	[8cc#X	]]	.
=8	=8	=8	=8	=8	=8	=8	=8	=8
4D	p	4r	.	4r	.	(4cc#]	p	VII(#7)
4r	.	4d'	p	4A' 4f#	p	4dd)	.	VII
4BB	.	4f#'	.	4B' 4a	.	4dd#X'	.	V7
=9	=9	=9	=9	=9	=9	=9	=9	=9
4EE	pp	4e	pp	4B 4g	pp	8ee'L	pp	i\\
.	.	.	.	.	.	8b'J	.	.
4r	.	8rF	.	8r	.	(4.ee	.	.
.	.	8gL 8eL	.	8gL	.	.	.	.
4r	.	8gJ 8eJ	.	8gJ	.	.	.	.
.	.	8rF	.	8r	.	8gg)	.	.
=10:|!	=10:|!	=10:|!	=10:|!	=10:|!	=10:|!	=10:|!	=10:|!	=10:|!
4D	p	4r	.	4r	.	(4cc#X	p	VII(#7)
4r	.	4d	p	4A 4f#	p	4ddn)	.	VII
4r	.	4r	.	[4d	.	[4dd	.	.
=11	=11	=11	=11	=11	=11	=11	=11	=11
4FF#	pp	4r	.	8dL]	pp	8ddL]	pp	VII6
.	.	.	.	8d'J	.	8dd'J	.	.
8r	.	8r	.	(4.e-X	.	(4.ee-X	.	III.viio7
8F#'	.	8A'	pp	.	.	.	.	.
8F#'	.	8A'	.	.	.	.	.	.
8r	.	8r	.	8c)	.	8ccn)	.	.
=12!|:	=12!|:	=12!|:	=12!|:	=12!|:	=12!|:	=12!|:	=12!|:	=12!|:
4GG	.	4r	.	8r	.	8r	.	I(4)
.	.	.	.	8c'	.	8cc'	.	.
8r	.	8r	.	(4.A#X	.	(4.a#X	.	I
8G'	.	8DL	.	.	.	.	.	.
4G'	.	8DJ	.	.	.	.	.	.
.	.	8r	.	8B)	.	8b)	.	.
=13	=13	=13	=13	=13	=13	=13	=13	=13
4GG#X	.	4r	.	8r	.	8r	.	#viio7/ii
.	.	.	.	8en'	.	8een'	.	.
8r	.	8r	.	(4.fn	.	(4.ffn	.	.
8G#X'	.	8BL	.	.	.	.	.	.
4G#'	.	8BJ	.	.	.	.	.	.
.	.	8r	.	8d)	.	8dd)	.	.
=14	=14	=14	=14	=14	=14	=14	=14	=14
4AA	.	4r	.	8r	.	8r	.	ii(94)
.	.	.	.	8d'	.	8dd'	.	.
8r	.	8r	.	(4.B	.	(4.b	.	ii
8AL	.	8EL	.	.	.	.	.	.
8AJ	.	8EJ	.	.	.	.	.	.
8r	.	8r	.	8c)	.	8cc)	.	.
=15	=15	=15	=15	=15	=15	=15	=15	=15
!LO:TX:b:i:t=cresc.	!	!	!	!	!	!LO:TX:b:i:t=cresc.	!	!
4AA	p	8r	.	4r	.	[2.ee	p	.
.	.	8e	p	.	.	.	.	.
!	!	!LO:TX:b:i:t=cresc.	!	!	!	!	!	!
8r	.	(4.a	.	8r	.	.	.	.
8AL	.	.	.	8cL	p	.	.	.
!	!	!	!	!LO:TX:b:i:t=cresc.	!	!	!	!
8AJ	.	.	.	8cJ	.	.	.	.
8r	.	8cc)	.	8r	.	.	.	.
=16	=16	=16	=16	=16	=16	=16	=16	=16
4GG#X	.	8r	.	4r	.	2.ee_	.	V6/ii
.	.	8cc	.	.	.	.	.	.
8r	.	(4.dd	.	8r	.	.	.	.
8G#XL	.	.	.	8BL	.	.	.	.
8G#J	.	.	.	8BJ	.	.	.	.
8r	.	8b)	.	8r	.	.	.	.
=17	=17	=17	=17	=17	=17	=17	=17	=17
4EE	.	8r	.	4r	.	2.ee_	.	V/ii
.	.	8g#X	.	.	.	.	.	.
8r	.	(4.e	.	8r	.	.	.	.
8EL	.	.	.	8G#XL	.	.	.	.
8EJ	.	.	.	8G#J	.	.	.	.
8r	.	8d)	.	8r	.	.	.	.
=18	=18	=18	=18	=18	=18	=18	=18	=18
4AA	.	8r	.	8r	.	2ee]	.	ii
.	.	(8dL	.	(8ddL	.	.	.	.
8r	.	8B	.	8b	.	.	.	.
8AAL	.	8c	.	8cc	.	.	.	.
8FF#X	sf	8B-X	sf	8b-X	sf	(4ee	sf	vii%7
8FF#J	.	8cJ)	.	8ccJ)	.	.	.	.
=19	=19	=19	=19	=19	=19	=19	=19	=19
4FFn	f	[2.C [2.c	f	8a'L	f	8ffn'L)	f	.bII.I
.	.	.	.	8c'J	.	8cc'J	.	.
8r	.	.	.	(4.fn	.	(4.ff	.	.
8CC'	.	.	.	.	.	.	.	.
4FF'	.	.	.	.	.	.	.	.
.	.	.	.	8a)	.	8aa)	.	.
=20	=20	=20	=20	=20	=20	=20	=20	=20
4CC	.	2.C_ 2.c_	.	8r	.	8r	.	V7
.	.	.	.	8a'	.	8aa'	.	.
8r	.	.	.	(4.b-X	.	(4.bb-X	.	.
8CC	.	.	.	.	.	.	.	.
4GG	.	.	.	.	.	.	.	.
.	.	.	.	8g)	.	8gg)	.	.
=21	=21	=21	=21	=21	=21	=21	=21	=21
4CC	.	2.C_ 2.c_	.	8r	.	8r	.	.
.	.	.	.	8e'	.	8ee'	.	.
8r	.	.	.	(4.c	.	(4.cc	.	.
8CC	.	.	.	.	.	.	.	.
4EE	.	.	.	.	.	.	.	.
.	.	.	.	8B-X)	.	8b-X)	.	.
=22	=22	=22	=22	=22	=22	=22	=22	=22
4CC	.	2.C_ 2.c_	.	8r	.	8r	.	.
.	.	.	.	8B-X'	.	8b-X'	.	.
8r	.	.	.	(4.G#X	.	(4.g#X	.	I(#2)
8CC	.	.	.	.	.	.	.	.
4FFn	.	.	.	.	.	.	.	.
.	.	.	.	8G#)	.	8g#)	.	.
=23	=23	=23	=23	=23	=23	=23	=23	=23
8r	.	8CL] 8c]	ff	4.A 4.fn	ff	4.c 4.a	ff	I
8CC'	ff	8C'J	.	.	.	.	.	.
(4.FFn	.	(4.Fn	.	.	.	.	.	.
.	.	.	.	8A' 8f	.	8c' 8a	.	.
.	.	.	.	4A' 4f	.	4c' 4a	.	.
8AA)	.	8A)	.	.	.	.	.	.
=24	=24	=24	=24	=24	=24	=24	=24	=24
8r	.	8r	.	4.A 4.fn	.	4.c 4.a	.	.
8CC'	.	8C'	.	.	.	.	.	.
(4.FFn	.	(4.Fn	.	.	.	.	.	.
.	.	.	.	8A' 8f	.	8c' 8a	.	.
.	.	.	.	4A' 4f	.	4c' 4a	.	.
8AA)	.	8A)	.	.	.	.	.	.
=25	=25	=25	=25	=25	=25	=25	=25	=25
8r	.	8r	.	4.A 4.fn	.	4.c 4.a	.	.
8CC'	.	8C'	.	.	.	.	.	.
(4.FFn	.	(4.Fn	.	.	.	.	.	.
.	.	.	.	8A' 8f	.	8c' 8a	.	.
.	.	.	.	4A' 4f	.	4c' 4a	.	.
8AA)	.	8A)	.	.	.	.	.	.
=26	=26	=26	=26	=26	=26	=26	=26	=26
[2.BB	ff > ]]	[2.F#X [2.A	ff > ]]	2.d#X	ff > ]]	[2.c [2.a	ff > ]]	i.V9
=27	=27	=27	=27	=27	=27	=27	=27	=27
4BB]	p	4F#] 4A]	p	8eL	p	8cL] 8a]	p	.
.	.	.	.	8cc'J	.	8ccc'J	.	.
8r	.	8r	.	(4.b	.	(4.bb	.	V6
8d#XL	.	8f#L	.	.	.	.	.	.
8d#J	.	8f#J	.	.	.	.	.	.
8r	.	8r	.	[8a)	.	[8aa)	.	.
=28	=28	=28	=28	=28	=28	=28	=28	=28
4E	.	4r	.	8aL]	.	8aaL]	.	i(4)
.	.	.	.	8a'J	.	8aa'J	.	.
8r	.	8r	.	(4.g	.	(4.gg	.	i
8eL	.	8gL	.	.	.	.	.	.
8eJ	.	8gJ	.	.	.	.	.	.
8r	.	8r	.	[8e)	.	[8ee)	.	.
=29	=29	=29	=29	=29	=29	=29	=29	=29
4B	.	4r	.	8eL]	.	8eeL]	.	V(4)
.	.	.	.	8e'J	.	8ee'J	.	.
8r	.	8r	.	(4.d#X	.	(4.dd#X	.	V7
8BL	.	8aL	.	.	.	.	.	.
8BJ	.	8aJ	.	.	.	.	.	.
8r	.	8r	.	[8f#X)	.	[8ff#X)	.	.
=30	=30	=30	=30	=30	=30	=30	=30	=30
!LO:TX:b:i:t=cresc.	!	!LO:TX:b:i:t=cresc.	!	!LO:TX:b:i:t=cresc.	!	!LO:TX:b:i:t=cresc.	!	!
4E	.	4g	.	(8f#L]	.	(8ff#L]	.	i(9+7)
.	.	.	.	8d#XJ	.	8dd#XJ	.	.
4r	.	4r	.	4e)	.	4ee)	.	i
[4CC	.	[4C [4c	.	(4b-X 4gg	.	(4eee	.	.bII.V7
=31	=31	=31	=31	=31	=31	=31	=31	=31
8CCL]	ff	8CL] 8c]	ff	4.a) 4.ffn	ff	4.fffn)	ff	I
8CCJ	.	8CJ	.	.	.	.	.	.
(4.FFn	.	(4.Fn	.	.	.	.	.	.
.	.	.	.	8a' 8ff	.	8cc' 8aa	.	.
.	.	.	.	4a' 4ff	.	4cc' 4aa	.	.
8AA)	.	8A)	.	.	.	.	.	.
=32	=32	=32	=32	=32	=32	=32	=32	=32
8r	.	8r	.	4.a 4.ffn	.	4.cc 4.aa	.	.
(8CC	.	(8C	.	.	.	.	.	.
4.FFn	.	4.Fn	.	.	.	.	.	.
.	.	.	.	8a' 8ff	.	8cc' 8aa	.	.
.	.	.	.	4a' 4ff	.	4cc' 4aa	.	.
8AA)	.	8A)	.	.	.	.	.	.
=33	=33	=33	=33	=33	=33	=33	=33	=33
8r	.	8r	.	4.a 4.ffn	.	4.cc 4.aa	.	.
(8CC	.	(8C	.	.	.	.	.	.
4.FFn	.	4.Fn	.	.	.	.	.	.
.	.	.	.	8a' 8ff	.	8cc' 8aa	.	.
.	.	.	.	4a' 4ff	.	4cc' 4aa	.	.
8AA)	.	8A)	.	.	.	.	.	.
=34	=34	=34	=34	=34	=34	=34	=34	=34
[2.BB	ff > ]]	[2.F#X [2.A	ff > ]]	[2.f#X [2.dd#X	ff > ]]	[2.cc [2.aa	ff > ]]	i.V7(9)
=35	=35	=35	=35	=35	=35	=35	=35	=35
4BB]	p	4F#] 4A]	p	4f#] 4dd#]	p	8ccL] 8aa]	p	.
.	.	.	.	.	.	8cccJ	.	.
8r	.	8r	.	8r	.	(4.bb	.	V6
8d#XL	.	8f#XL	.	8bL	.	.	.	.
8d#J	.	8f#J	.	8bJ	.	.	.	.
8r	.	8r	.	8r	.	[8aa)	.	.
=36	=36	=36	=36	=36	=36	=36	=36	=36
4E	.	4r	.	4r	.	8aaL]	.	i(4)
.	.	.	.	.	.	8aa'J	.	.
8r	.	8r	.	8r	.	(4.gg	.	i
8eL	.	8gL	.	8bL	.	.	.	.
8eJ	.	8gJ	.	8bJ	.	.	.	.
8r	.	8r	.	8r	.	[8ee)	.	.
=37	=37	=37	=37	=37	=37	=37	=37	=37
4B	.	4r	.	4r	.	8eeL]	.	V(4)
.	.	.	.	.	.	8ee'J	.	.
8r	.	8r	.	8r	.	(4.dd#X	.	V7
8BL	.	8aL	.	8bL	.	.	.	.
8BJ	.	8aJ	.	8bJ	.	.	.	.
8r	.	8r	.	8r	.	8ff#)	.	.
*clefC4	*	*	*	*	*	*	*	*
=38	=38	=38	=38	=38	=38	=38	=38	=38
2.e	pp	4E	pp	4g 4b	pp	8ee'L	pp	i
.	.	.	.	.	.	8bb'J	.	.
.	.	8r	.	8r	.	(4.eee	.	.
.	.	8eL	.	8bL	.	.	.	.
.	.	8eJ	.	8bJ	.	.	.	.
.	.	8r	.	8r	.	[8ggg)	.	.
=39	=39	=39	=39	=39	=39	=39	=39	=39
[2.f#	.	4d#X	.	4b	.	8gggL]	.	V6
.	.	.	.	.	.	8fff#J	.	.
.	.	8r	.	8r	.	(4.ddd#X	.	.
.	.	8d#L	.	8bL	.	.	.	.
.	.	8d#J	.	8bJ	.	.	.	.
.	.	8r	.	8r	.	[8bb)	.	.
=40	=40	=40	=40	=40	=40	=40	=40	=40
2.f#]	.	4d#X	.	4b	.	8bbL]	.	.
.	.	.	.	.	.	8bbJ	.	.
.	.	8r	.	8r	.	(4.ccc	.	.
.	.	8d#L	.	8bL	.	.	.	.
.	.	8d#J	.	8bJ	.	.	.	.
.	.	8r	.	8r	.	[8aa)	.	.
=41	=41	=41	=41	=41	=41	=41	=41	=41
(2.g	.	4e	.	4b	.	8aaL]	.	i(+4)
.	.	.	.	.	.	(8aaJ	.	.
.	.	8r	.	8r	.	4.ff#	.	i(+2)
.	.	8eL	.	8bL	.	.	.	.
.	.	8eJ	.	8bJ	.	.	.	.
.	.	8r	.	8r	.	[8gg)	.	i
=42	=42	=42	=42	=42	=42	=42	=42	=42
2.a	.	4A	.	4cc	.	(8ggL]	.	iv7
.	.	.	.	.	.	8ggJ	.	.
.	.	8r	.	8r	.	4.ee	.	iv
.	.	8AL	.	8ccL	.	.	.	.
.	.	8AJ	.	8ccJ	.	.	.	.
.	.	8r	.	8r	.	[8ffn)	.	.
=43	=43	=43	=43	=43	=43	=43	=43	=43
2.b	.	4B	.	4g	.	8ffL]	.	V(#76)
.	.	.	.	.	.	(8ffnJ	.	.
.	.	8r	.	8r	.	4.dd#X	.	.
.	.	8BL	.	8gL	.	.	.	.
.	.	8BJ	.	8gJ	.	.	.	.
.	.	8r	.	8r	.	[8ee)	.	V(64)
=44	=44	=44	=44	=44	=44	=44	=44	=44
2.B	.	4B	.	4f# 4a	.	8eeL]	.	V7(4)
.	.	.	.	.	.	(8eeJ	.	.
.	.	8r	.	8r	.	4.cc#X	.	V7(+#2)
.	.	8BL	.	8f#L 8a	.	.	.	.
.	.	8BJ	.	8f#J 8a	.	.	.	.
.	.	8r	.	8r	.	8dd#X)	.	V7
=45	=45	=45	=45	=45	=45	=45	=45	=45
(2e)	.	4E	.	8e'L	.	4ee	.	i\\
.	.	.	.	8b'J	.	.	.	.
.	.	8r	.	(4.e	.	4r	.	i[i6
.	.	8EL 8G	.	.	.	.	.	.
4f#)	.	8EJ 8A	.	.	.	4r	.	viio64
.	.	8r	.	8d#X)	.	.	.	.
=46	=46	=46	=46	=46	=46	=46	=46	=46
(2f#	.	4E 4A	.	2.r	.	8r	.	.
.	.	.	.	.	.	8cccn'	.	.
.	.	8r	.	.	.	(4.dd#X	.	i6
.	.	8EL 8A	.	.	.	.	.	.
4e)	.	8EJ 8G	.	.	.	.	.	.
.	.	8r	.	.	.	8ee)	.	.
=47	=47	=47	=47	=47	=47	=47	=47	=47
!LO:TX:b:i:t=cresc.	!	!LO:TX:b:i:t=cresc.	!	!	!	!	!	!
(2e	.	4E 4G	.	8r	.	2.r	.	viio64
!	!	!	!	!LO:TX:b:i:t=cresc.	!	!	!	!
.	.	.	.	8b'	.	.	.	.
.	.	8r	.	4.e	.	.	.	.
.	.	8EL 8G	.	.	.	.	.	.
4f#)	.	8EJ 8A	.	.	.	.	.	.
.	.	8r	.	8d#X	.	.	.	.
=48	=48	=48	=48	=48	=48	=48	=48	=48
(2f#	.	4E 4A	.	2.r	.	8r	.	.
!	!	!	!	!	!	!LO:TX:b:i:t=cresc.	!	!
.	.	.	.	.	.	8ccc'	.	.
.	.	8r	.	.	.	(4.dd#X	.	i6
.	.	8EL 8A	.	.	.	.	.	.
4e)	.	8EJ 8G	.	.	.	.	.	.
.	.	8r	.	.	.	8ee)	.	.
=49	=49	=49	=49	=49	=49	=49	=49	=49
2f#	.	4E 4A	.	2.r	.	8r	.	viio64
.	.	.	.	.	.	8ccc'	.	.
.	.	8r	.	.	.	4.dd#X	.	i6]
.	.	8EL 8A	.	.	.	.	.	.
[4e	.	8EJ 8G	.	.	.	.	.	.
.	.	8r	.	.	.	[8ee	.	.
=50	=50	=50	=50	=50	=50	=50	=50	=50
4e]	.	4r	.	4r	.	8eeL]	.	.
.	.	.	.	.	.	8cccJ	.	.
[2f#	f	[2B	f	[2a	f	[2dd#X	f	V7
=51	=51	=51	=51	=51	=51	=51	=51	=51
(2f#]	>	(2B]	>	(2a]	>	(2dd#]	>	.
4e)	]]	4E)	]]	4g)	]]	4ee)	]]	i
=52	=52	=52	=52	=52	=52	=52	=52	=52
4e	p	4E	p	4g	p	4ee	p	i\\
4r	.	4r	.	4r	.	4r	.	.
4r	.	4r	.	4r	.	4r	.	.
=53	=53	=53	=53	=53	=53	=53	=53	=53
4BB	.	4B	.	4d#X	.	4f#	.	V
4r	.	4r	.	4r	.	4r	.	.
4r	.	4r	.	4r	.	4r	.	.
=54	=54	=54	=54	=54	=54	=54	=54	=54
4EE	.	4E	.	4e	.	4e	.	i\\
4EE	.	4G	.	4r	.	4r	.	.
4EE	pp	4G	pp	[4e	pp	[4ee	pp	.
=55	=55	=55	=55	=55	=55	=55	=55	=55
4FF#	.	4A	.	8eL]	.	8eeL]	.	vii%7/III
.	.	.	.	8dn'J	.	8dd'J	.	.
8r	.	8r	.	(4.e-X	.	(4.ee-X	.	viio7/III
8F#L	.	8AL	.	.	.	.	.	.
8F#J	.	8AJ	.	.	.	.	.	.
8r	.	8r	.	8c)	.	8cc)	.	.
=56:|!	=56:|!	=56:|!	=56:|!	=56:|!	=56:|!	=56:|!	=56:|!	=56:|!
4e	p	4E	p	4g	p	4een	p	i\\
4r	.	4r	.	4r	.	4r	.	.
4r	.	4r	.	4r	.	4r	.	.
=57	=57	=57	=57	=57	=57	=57	=57	=57
4BB	.	4B	.	4d#X	.	4f#	.	V
4r	.	4r	.	4r	.	4r	.	.
4r	.	4r	.	4r	.	4r	.	.
=	=	=	=	=	=	=	=	=
4EE	.	4E	.	4e	.	4e	.	i\\
=58||	=58||	=58||	=58||	=58||	=58||	=58||	=58||	=58||
*k[f#c#g#d#]	*	*k[f#c#g#d#]	*	*k[f#c#g#d#]	*	*k[f#c#g#d#]	*	*
*E:	*	*E:	*	*E:	*	*E:	*	*
!	!	!LO:TX:a:t=(Thème russe)	!	!	!	!LO:TX:a:B:t=Maggiore	!	!
4r	.	8e'	p	(12g#L	p	4r	.	I
.	.	.	.	12f#	.	.	.	.
.	.	8r	.	.	.	.	.	.
.	.	.	.	12eJ	.	.	.	.
4r	.	8B'	.	12d#L	.	4r	.	V
.	.	.	.	12c#	.	.	.	.
.	.	8r	.	.	.	.	.	.
.	.	.	.	12d#J)	.	.	.	.
=59	=59	=59	=59	=59	=59	=59	=59	=59
2.r	.	(8eL	.	(12eL	.	2.r	.	I6
.	.	.	.	12d#	.	.	.	.
.	.	8f#J)	.	.	.	.	.	.
.	.	.	.	12c#J)	.	.	.	.
.	.	8g#'	.	12BL	.	.	.	.
.	.	.	.	12B	.	.	.	.
.	.	8r	.	.	.	.	.	.
.	.	.	.	12BJ	.	.	.	.
.	.	8g#'	.	(12BL	.	.	.	.
.	.	.	.	12c#	.	.	.	.
.	.	8r	.	.	.	.	.	.
.	.	.	.	12d#J)	.	.	.	.
=60	=60	=60	=60	=60	=60	=60	=60	=60
2.r	.	(8g#L	.	(12eL	.	2.r	.	I6
.	.	.	.	12d#	.	.	.	.
.	.	8bJ)	.	.	.	.	.	.
.	.	.	.	12eJ	.	.	.	.
.	.	8a'	.	12f#L	.	.	.	.
.	.	.	.	12e	.	.	.	.
.	.	8r	.	.	.	.	.	.
.	.	.	.	12f#J	.	.	.	.
.	.	8g#'	.	12g#L	.	.	.	.
.	.	.	.	12f#	.	.	.	.
.	.	8r	.	.	.	.	.	.
.	.	.	.	12g#J)	.	.	.	.
=61	=61	=61	=61	=61	=61	=61	=61	=61
!	!	!LO:TX:b:i:t=cresc.	!	!LO:TX:b:i:t=cresc.	!	!	!	!
2.r	.	8f#'	.	(12aL	.	2.r	.	V
.	.	.	.	12b	.	.	.	.
.	.	8r	.	.	.	.	.	.
.	.	.	.	12aJ	.	.	.	.
.	.	8e'	.	12g#L	.	.	.	.
.	.	.	.	12f#	.	.	.	.
.	.	8r	.	.	.	.	.	.
.	.	.	.	12eJ	.	.	.	.
.	.	8f#'	.	12d#L	.	.	.	.
.	.	.	.	12c#	.	.	.	.
.	.	8r	.	.	.	.	.	.
.	.	.	.	12BJ)	.	.	.	.
=62	=62	=62	=62	=62	=62	=62	=62	=62
2.r	.	(2g#	.	(12eL	.	2.r	.	I
.	.	.	.	12f#	.	.	.	.
.	.	.	.	12g#J	.	.	.	.
.	.	.	.	12aL	.	.	.	.
.	.	.	.	12b	.	.	.	.
.	.	.	.	12cc#J	.	.	.	.
.	.	4e)	.	12bL	.	.	.	.
.	.	.	.	12cc#	.	.	.	.
.	.	.	.	12bJ)	.	.	.	.
=63	=63	=63	=63	=63	=63	=63	=63	=63
2.r	.	(2f#	sf >	(12aL	sf >	2.r	.	V43
.	.	.	.	12b	.	.	.	.
.	.	.	.	12aJ	.	.	.	.
.	.	.	.	12g#L	.	.	.	.
.	.	.	.	12f#	.	.	.	.
.	.	.	.	12eJ	.	.	.	.
.	.	8g#L	.	12d#L	.	.	.	.
.	.	.	.	12c#	.	.	.	.
.	.	8f#J)	]]	.	.	.	.	.
.	.	.	.	12BJ)	]]	.	.	.
=64	=64	=64	=64	=64	=64	=64	=64	=64
!	!	!	!	!LO:TX:a:t=(Thème russe)	!	!	!	!
4r	.	4e	p	4e	p	2.r	.	V65/V
(12D#L	p	4r	.	8b'	.	.	.	.
12C#	.	.	.	.	.	.	.	.
.	.	.	.	8r	.	.	.	.
12BBJ	.	.	.	.	.	.	.	.
12AA#XL	.	(4e	.	8f#'	.	.	.	.
12GG#	.	.	.	.	.	.	.	.
.	.	.	.	8r	.	.	.	.
12AA#J)	.	.	.	.	.	.	.	.
=65	=65	=65	=65	=65	=65	=65	=65	=65
(12BBL	.	8d#)	.	(8bL	.	2.r	.	V43
12AA#X	.	.	.	.	.	.	.	.
.	.	8r	.	8cc#J)	.	.	.	.
12GG#J)	.	.	.	.	.	.	.	.
12FF#L	.	8B	.	8dd#'	.	.	.	.
12FF#	.	.	.	.	.	.	.	.
.	.	8r	.	8r	.	.	.	.
12FF#J	.	.	.	.	.	.	.	.
(12FF#L	.	[4F#	.	8dd#'	.	.	.	.
12GG#	.	.	.	.	.	.	.	.
.	.	.	.	8r	.	.	.	.
12AA#J)	.	.	.	.	.	.	.	.
=66	=66	=66	=66	=66	=66	=66	=66	=66
(12BBL	.	8F#]	.	(8dd#L	.	2.r	.	V6
12AA#X	.	.	.	.	.	.	.	.
.	.	8r	.	8ff#J)	.	.	.	.
12BBJ	.	.	.	.	.	.	.	.
12C#L	.	8f#	.	8ee'	.	.	.	.
12BB	.	.	.	.	.	.	.	.
.	.	8r	.	8r	.	.	.	.
12C#J	.	.	.	.	.	.	.	.
12D#L	.	[4f#	.	8dd#'	.	.	.	.
12C#	.	.	.	.	.	.	.	.
.	.	.	.	8r	.	.	.	.
12D#J)	.	.	.	.	.	.	.	.
=67	=67	=67	=67	=67	=67	=67	=67	=67
!LO:TX:b:i:t=cresc.	!	!LO:TX:b:i:t=cresc.	!	!LO:TX:b:i:t=cresc.	!	!	!	!
(12EL	.	8f#]	.	8cc#'	.	2.r	.	V6/V
12F#	.	.	.	.	.	.	.	.
.	.	8r	.	8r	.	.	.	.
12EJ	.	.	.	.	.	.	.	.
12D#L	.	8F#	.	8b'	.	.	.	.
12C#	.	.	.	.	.	.	.	.
.	.	8r	.	8r	.	.	.	.
12BBJ	.	.	.	.	.	.	.	.
12AA#XL	.	[4f#	.	8cc#'	.	.	.	.
12GG#	.	.	.	.	.	.	.	.
.	.	.	.	8r	.	.	.	.
12FF#J)	.	.	.	.	.	.	.	.
=68	=68	=68	=68	=68	=68	=68	=68	=68
(12BBL	.	(4f#]	.	(2dd#	.	2.r	.	V64
12C#	.	.	.	.	.	.	.	.
12D#J	.	.	.	.	.	.	.	.
12EL	.	4B	.	.	.	.	.	.
12F#	.	.	.	.	.	.	.	.
12G#J	.	.	.	.	.	.	.	.
12F#L	.	[4b)	.	4b)	.	.	.	.
12G#	.	.	.	.	.	.	.	.
12F#J)	.	.	.	.	.	.	.	.
=69	=69	=69	=69	=69	=69	=69	=69	=69
(12E#XL	sf >	(4b]	sf >	(2cc#	sf >	2.r	.	IV64
12F#	.	.	.	.	.	.	.	.
12E#J	.	.	.	.	.	.	.	.
12F#L	.	4a)	.	.	.	.	.	.
12G#	.	.	.	.	.	.	.	.
12F#J	.	.	.	.	.	.	.	.
12EnL	.	[4a	]]	8dd#L	.	.	.	.
12F#	.	.	.	.	.	.	.	.
.	.	.	.	8cc#J)	]]	.	.	.
12EJ)	]]	.	.	.	.	.	.	.
=70	=70	=70	=70	=70	=70	=70	=70	=70
(4D#	p	4a]	p	4b	p	4r	.	V65
!	!	!	!	!	!	!LO:TX:a:t=(Thème russe)	!	!
8E)	.	4g#	.	4r	.	(12gg#L	p	I
.	.	.	.	.	.	12ff#	.	.
8r	.	.	.	.	.	.	.	.
.	.	.	.	.	.	12eeJ	.	.
8BB'	.	4r	.	(4a	.	12dd#L	.	V7
.	.	.	.	.	.	12cc#	.	.
8r	.	.	.	.	.	.	.	.
.	.	.	.	.	.	12dd#J)	.	.
=71	=71	=71	=71	=71	=71	=71	=71	=71
(8EL	.	2.r	.	8g#)	.	(12eeL	.	I
.	.	.	.	.	.	12dd#	.	.
8F#J)	.	.	.	8r	.	.	.	.
.	.	.	.	.	.	12cc#J)	.	.
8G#'	.	.	.	8e	.	12bL	.	I6
.	.	.	.	.	.	12b	.	.
8r	.	.	.	8r	.	.	.	.
.	.	.	.	.	.	12bJ	.	.
8G#'	.	.	.	[4B	.	(12bL	.	.
.	.	.	.	.	.	12cc#	.	.
8r	.	.	.	.	.	.	.	.
.	.	.	.	.	.	12dd#J)	.	.
=72	=72	=72	=72	=72	=72	=72	=72	=72
(8G#L	.	2.r	.	4B]	.	(12eeL	.	.
.	.	.	.	.	.	12dd#	.	.
8BJ)	.	.	.	.	.	.	.	.
.	.	.	.	.	.	12eeJ	.	.
8A'	.	.	.	4b	.	12ff#L	.	V2
.	.	.	.	.	.	12ee	.	.
8r	.	.	.	.	.	.	.	.
.	.	.	.	.	.	12ff#J	.	.
8G#'	.	.	.	[4b	.	12gg#L	.	I6
.	.	.	.	.	.	12ff#	.	.
8r	.	.	.	.	.	.	.	.
.	.	.	.	.	.	12gg#J)	.	.
=73	=73	=73	=73	=73	=73	=73	=73	=73
!LO:TX:b:i:t=cresc.	!	!	!	!LO:TX:b:i:t=cresc.	!	!LO:TX:b:i:t=cresc.	!	!
8F#'	.	2.r	.	4b]	.	(12aaL	.	V43
.	.	.	.	.	.	12bb	.	.
8r	.	.	.	.	.	.	.	.
.	.	.	.	.	.	12aaJ	.	.
8E'	.	.	.	4B	.	12gg#L	.	I
.	.	.	.	.	.	12ff#	.	.
8r	.	.	.	.	.	.	.	.
.	.	.	.	.	.	12eeJ	.	.
8F#'	.	.	.	4B	.	12dd#L	.	V64
.	.	.	.	.	.	12cc#	.	.
8r	.	.	.	.	.	.	.	.
.	.	.	.	.	.	12bJ)	.	.
=74	=74	=74	=74	=74	=74	=74	=74	=74
(2G#	.	4r	.	4B	.	(12eeL	.	I6
.	.	.	.	.	.	12ff#	.	.
.	.	.	.	.	.	12gg#J	.	.
.	.	4r	.	(4b	.	12aaL	.	.
.	.	.	.	.	.	12bb	.	.
.	.	.	.	.	.	12ccc#J	.	.
4E)	.	4B	p	4g#)	.	12bbL	.	I
.	.	.	.	.	.	12ccc#	.	.
.	.	.	.	.	.	12bbJ)	.	.
=75	=75	=75	=75	=75	=75	=75	=75	=75
(2F#	sf >	[2.B	sf > ]]	(2a	sf >	(12aaL	sf >	V43
.	.	.	.	.	.	12bb	.	.
.	.	.	.	.	.	12aaJ	.	.
.	.	.	.	.	.	12gg#L	.	.
.	.	.	.	.	.	12ff#	.	.
.	.	.	.	.	.	12eeJ	.	.
8G#L	.	.	.	8bL	.	12dd#L	.	I6
.	.	.	.	.	.	12cc#	.	V43
8F#J)	]]	.	.	8aJ)	]]	.	.	.
.	.	.	.	.	.	12bJ)	]]	.
=76	=76	=76	=76	=76	=76	=76	=76	=76
!	!	!	!	!	!	!LO:TX:a:t=(Thème russe)	!	!
4E	p	4B]	p	4g#	p	4ee	p	I
4r	.	(12d#L	.	4r	.	8bb'	.	V
.	.	12c#	.	.	.	.	.	.
.	.	.	.	.	.	8r	.	.
.	.	12BJ	.	.	.	.	.	.
4E	.	12A#XL	.	4r	.	8ff#'	.	V2/V
.	.	12G#	.	.	.	.	.	.
.	.	.	.	.	.	8r	.	.
.	.	12A#J)	.	.	.	.	.	.
=77	=77	=77	=77	=77	=77	=77	=77	=77
8D#	.	(12BL	.	2.r	.	(8bbL	.	V6
.	.	12A#X	.	.	.	.	.	.
8r	.	.	.	.	.	8ccc#J)	.	.
.	.	12G#J)	.	.	.	.	.	.
8BB	.	12F#L	.	.	.	8ddd#'	.	V
.	.	12F#	.	.	.	.	.	.
8r	.	.	.	.	.	8r	.	.
.	.	12F#J	.	.	.	.	.	.
[4FF#	.	(12F#L	.	.	.	8ddd#'	.	V64
.	.	12G#	.	.	.	.	.	.
.	.	.	.	.	.	8r	.	.
.	.	12A#J)	.	.	.	.	.	.
=78	=78	=78	=78	=78	=78	=78	=78	=78
4FF#]	.	(12BL	.	2.r	.	(8ddd#L	.	.
.	.	12A#X	.	.	.	.	.	.
.	.	.	.	.	.	8fff#J)	.	.
.	.	12BJ	.	.	.	.	.	.
4F#	.	12c#L	.	.	.	8eee'	.	V7/V
.	.	12B	.	.	.	.	.	.
.	.	.	.	.	.	8r	.	.
.	.	12c#J	.	.	.	.	.	.
[4F#	.	12d#L	.	.	.	8ddd#'	.	V64
.	.	12c#	.	.	.	.	.	.
.	.	.	.	.	.	8r	.	.
.	.	12d#J)	.	.	.	.	.	.
=79	=79	=79	=79	=79	=79	=79	=79	=79
!LO:TX:b:i:t=cresc.	!	!LO:TX:b:i:t=cresc.	!	!	!	!LO:TX:b:i:t=cresc.	!	!
4F#]	.	(12eL	.	2.r	.	8ccc#'	.	V7/V
.	.	12f#	.	.	.	.	.	.
.	.	.	.	.	.	8r	.	.
.	.	12eJ	.	.	.	.	.	.
(4F#	.	12d#L	.	.	.	8bb'	.	V64
.	.	12c#	.	.	.	.	.	.
.	.	.	.	.	.	8r	.	.
.	.	12BJ	.	.	.	.	.	.
4E)	.	12A#XL	.	.	.	8ccc#'	.	V2/V
.	.	12G#	.	.	.	.	.	.
.	.	.	.	.	.	8r	.	.
.	.	12F#J)	.	.	.	.	.	.
=80	=80	=80	=80	=80	=80	=80	=80	=80
4D#	.	(12BL	.	2.r	.	(2ddd#	.	V
.	.	12c#	.	.	.	.	.	.
.	.	12d#J	.	.	.	.	.	.
4BB	.	12eL	.	.	.	.	.	.
.	.	12f#	.	.	.	.	.	.
.	.	12g#J	.	.	.	.	.	.
[4B	.	12f#L	.	.	.	4bb)	.	.
.	.	12g#	.	.	.	.	.	.
.	.	12f#J)	.	.	.	.	.	.
=81	=81	=81	=81	=81	=81	=81	=81	=81
4B]	.	(12e#XL	.	2.r	.	(2ccc#	p	ii6
.	.	12f#	.	.	.	.	.	.
.	.	12e#J	.	.	.	.	.	.
[2A	.	12f#L	.	.	.	.	.	.
.	.	12g#	.	.	.	.	.	.
.	.	12f#J	.	.	.	.	.	.
.	.	12enL	.	.	.	8ddd#L	.	IV(4)
.	.	12f#	.	.	.	.	.	.
.	.	.	.	.	.	8ccc#J)	.	IV
.	.	12eJ	.	.	.	.	.	.
=82	=82	=82	=82	=82	=82	=82	=82	=82
!LO:TX:b:i:t=cresc.	!	!LO:TX:b:i:t=cresc.	!	!	!	!LO:TX:b:i:t=cresc.	!	!
4A]	.	12d#L	.	2.r	.	(2bb	.	I6
.	.	12e	.	.	.	.	.	.
.	.	12d#J)	.	.	.	.	.	.
(12G#L	.	4e	.	.	.	.	.	.
12A	.	.	.	.	.	.	.	.
12G#J	.	.	.	.	.	.	.	.
12EL	.	[4g#	.	.	.	8ccc#L	.	I(6)
12F#	.	.	.	.	.	.	.	.
.	.	.	.	.	.	8bbJ)	.	I
12EJ	.	.	.	.	.	.	.	.
=83	=83	=83	=83	=83	=83	=83	=83	=83
12C#L	.	(4g#]	.	4r	.	(2aa	.	viio
12D#	.	.	.	.	.	.	.	.
12C#J	.	.	.	.	.	.	.	.
12D#L	.	4f#	.	4r	.	.	.	.
12E	.	.	.	.	.	.	.	.
12D#J	.	.	.	.	.	.	.	.
!	!	!	!	!LO:TX:b:i:t=cresc.	!	!	!	!
12C#L	.	[4d#)	.	[4ff#	.	8bbL	.	viio(6)
12D#	.	.	.	.	.	.	.	.
.	.	.	.	.	.	8aaJ)	.	viio2
12C#J)	.	.	.	.	.	.	.	.
=84	=84	=84	=84	=84	=84	=84	=84	=84
(12BB#XL	.	4d#]	.	4ff#]	.	(2gg#	.	vi
12C#	.	.	.	.	.	.	.	.
12BB#J	.	.	.	.	.	.	.	.
12C#L	.	[2c#	.	[2ee	.	.	.	.
12D#	.	.	.	.	.	.	.	.
12C#J	.	.	.	.	.	.	.	.
12BBnL	.	.	.	.	.	8aaL	.	vi2(6)
12C#	.	.	.	.	.	.	.	.
.	.	.	.	.	.	8gg#J)	.	vi2
12BBJ)	.	.	.	.	.	.	.	.
=85	=85	=85	=85	=85	=85	=85	=85	=85
(12AAL	f	4c#]	f	4ee]	f	2.ff#T	f	V7
12BB	.	.	.	.	.	.	.	.
12AAJ	.	.	.	.	.	.	.	.
12FF#L	.	2A	.	4e	.	.	.	.
12GG#	.	.	.	.	.	.	.	.
12AAJ	.	.	.	.	.	.	.	.
12BBL	.	.	.	4d#	.	.	.	.
12AA#X	.	.	.	.	.	.	.	.
12BBJ)	.	.	.	.	.	.	.	.
.	.	.	.	.	.	16qqee/LL	.	.
.	.	.	.	.	.	16qqff#/JJ	.	.
=86	=86	=86	=86	=86	=86	=86	=86	=86
!	!	!LO:TX:b:i:t=sempre	!	!LO:TX:b:i:t=sempre	!	!	!	!
4EE	.	8G#'	p	8e'	p	4ee	.	I\\
.	.	8r	.	8ee'L	.	.	.	.
4r	.	8e'	.	8dd#'	.	4r	.	.
.	.	8r	.	8cc#'	.	.	.	.
4r	.	8B'	.	8b'	.	4r	.	V7
.	.	8r	.	8a'J	.	.	.	.
=87	=87	=87	=87	=87	=87	=87	=87	=87
!	!	!	!	!LO:TX:b:i:t=sempre staccato	!	!	!	!
2.r	.	(8eL	.	8g#L	.	2.r	.	I6
.	.	8f#J)	.	8cc#	.	.	.	.
.	.	8g#'	.	8b	.	.	.	.
.	.	8r	.	8a	.	.	.	.
.	.	8g#'	.	8g#	.	.	.	.
.	.	8r	.	8f#J	.	.	.	.
=88	=88	=88	=88	=88	=88	=88	=88	=88
2.r	.	(8g#L	.	8eL	.	2.r	.	I
.	.	8bJ)	.	8B	.	.	.	.
.	.	8a'	.	8d#	.	.	.	.
.	.	8r	.	8B	.	.	.	.
.	.	8g#'	.	8e	.	.	.	.
.	.	8r	.	8BJ	.	.	.	.
=89	=89	=89	=89	=89	=89	=89	=89	=89
2.r	.	8f#'	.	8AL	.	2.r	.	V
.	.	8r	.	8B	.	.	.	.
.	.	8e'	.	8G#	.	.	.	.
.	.	8r	.	8B	.	.	.	.
.	.	8f#'	.	8d#	.	.	.	.
.	.	8r	.	8BJ	.	.	.	.
=90	=90	=90	=90	=90	=90	=90	=90	=90
2.r	.	(2g#	.	8e'L	.	2.r	.	I
.	.	.	.	8f#'	.	.	.	.
.	.	.	.	8g#'	.	.	.	.
.	.	.	.	8a'	.	.	.	.
.	.	4e)	.	8b'	.	.	.	.
.	.	.	.	8cc#'J	.	.	.	.
=91	=91	=91	=91	=91	=91	=91	=91	=91
2.r	.	(2f#	.	8a'L	.	2.r	.	V43
.	.	.	.	8g#'	.	.	.	.
.	.	.	.	8a'	.	.	.	.
.	.	.	.	8b'	.	.	.	.
.	.	8g#L	.	8cc#'	.	.	.	.
.	.	8f#J)	.	8dd#'J	.	.	.	.
=92	=92	=92	=92	=92	=92	=92	=92	=92
2.r	.	8e'L	.	4ee	.	2.r	.	V6
.	.	8g#'	.	.	.	.	.	.
.	.	8f#'	.	8b	.	.	.	.
.	.	8e'	.	8r	.	.	.	.
.	.	8d#'	.	8f#	.	.	.	.
.	.	8c#'J	.	8r	.	.	.	.
=93	=93	=93	=93	=93	=93	=93	=93	=93
!	!	!LO:TX:b:i:t=sempre staccato	!	!	!	!	!	!
2.r	.	8BL	.	(8bL	.	2.r	.	V
.	.	8A#X	.	8cc#J)	.	.	.	.
.	.	8B	.	8dd#	.	.	.	.
.	.	8F#	.	8r	.	.	.	.
.	.	8G#	.	8dd#	.	.	.	.
.	.	8A#J	.	8r	.	.	.	.
=94	=94	=94	=94	=94	=94	=94	=94	=94
2.r	.	8BL	.	(8dd#L	.	2.r	.	V
.	.	8B#X	.	8ff#J)	.	.	.	.
.	.	8c#	.	8ee	.	.	.	.
.	.	8A#X	.	8r	.	.	.	.
.	.	8Bn	.	8dd#	.	.	.	.
.	.	8d#J	.	8r	.	.	.	.
=95	=95	=95	=95	=95	=95	=95	=95	=95
2.r	.	8eL	.	8cc#	.	2.r	.	V43/V
.	.	8c#	.	8r	.	.	.	.
.	.	8d#	.	8b	.	.	.	.
.	.	8f#	.	8r	.	.	.	.
.	.	8e	.	8cc#	.	.	.	.
.	.	8c#J	.	8r	.	.	.	.
=96	=96	=96	=96	=96	=96	=96	=96	=96
2.r	.	8BL	.	(2dd#	.	2.r	.	I6
.	.	8f#	.	.	.	.	.	.
.	.	8b	.	.	.	.	.	.
.	.	8a#X	.	.	.	.	.	.
.	.	8g#	.	4b)	.	.	.	.
.	.	8f#J	.	.	.	.	.	.
=97	=97	=97	=97	=97	=97	=97	=97	=97
2.r	.	8e#XL	.	(2cc#	.	2.r	.	IV64
.	.	8b	.	.	.	.	.	.
.	.	8f#	.	.	.	.	.	.
.	.	8an	.	.	.	.	.	.
.	.	8en	.	8dd#L	.	.	.	.
.	.	8aJ	.	8cc#J)	.	.	.	.
=98	=98	=98	=98	=98	=98	=98	=98	=98
!	!	!LO:TX:b:i:t=cresc.	!	!LO:TX:b:i:t=cresc.	!	!	!	!
4r	.	8d#L	.	8bL	.	8r	.	V6
.	.	8AJ	.	8b'	.	8bb'	p	V2
!LO:TX:b:i:t=cresc.	!	!	!	!	!	!LO:TX:a:i:t=cresc.	!	!
8E	.	8G#	.	8bb'	.	8ggg#'L	.	I
8r	.	8r	.	8aa'	.	8fff#'	.	.
8BB	.	8F#	.	8gg#'	.	8eee'	.	V(64)
8r	.	8r	.	8ff#'J	.	8ddd#'J	.	V
=99	=99	=99	=99	=99	=99	=99	=99	=99
!	!	!	!	!	!	!LO:TX:b:i:t=sempre staccato	!	!
!	!	!	!	!	!	!LO:TX:b:i:t=sempre staccato	!	!
(8EL	.	(8G#L	.	8gg#L	.	8eee'L	.	I\\
8F#J)	.	8AJ)	.	8bb	.	8ddd#'	.	.
4G#'	.	4B'	.	8aa	.	8ccc#'	.	I6
.	.	.	.	8gg#	.	8bb'	.	.
[4G#	.	[4B	.	8ff#	.	8aa'	.	.
.	.	.	.	8eeJ	.	8gg#'J	.	.
=100	=100	=100	=100	=100	=100	=100	=100	=100
(8G#L]	.	(8BL]	.	8eeL	.	8gg#'L	.	.
8BJ)	.	8dnJ)	.	8ee#X	.	8gg#'	.	#viio43/ii
4A'	.	4c#'	.	8ff#	.	8aa'	.	ii6
.	.	.	.	8ee#	.	8gg#'	.	.
4G#'	.	4B'	.	8ff#	.	8aa'	.	I6
.	.	.	.	8gg#J	.	8bb'J	.	.
=101	=101	=101	=101	=101	=101	=101	=101	=101
4F#'	.	4A'	.	8aaL	.	8ccc#L	.	ii
.	.	.	.	8dd#	.	8ff#	.	.
4E'	.	4G#'	.	8gg#	.	8bb	.	I
.	.	.	.	8aa	.	8ccc#	.	.
4F#'	.	4A'	.	8gg#	.	8bb	.	ii
.	.	.	.	8ff#J	.	8aaJ	.	.
=102	=102	=102	=102	=102	=102	=102	=102	=102
(2G#	.	(2B	.	8eenL	.	8gg#L	.	I6
.	.	.	.	8dd#	.	8ff#	.	.
.	.	.	.	8ee	.	8gg#	.	.
.	.	.	.	8ff#	.	8aa	.	.
4E)	.	4G#)	.	8gg#	.	8bb	.	.
.	.	.	.	8eeJ	.	8ccc#J	.	.
=103	=103	=103	=103	=103	=103	=103	=103	=103
(2F#	sf	(2A	sf	8dd#L	.	8aaL	.	V43
.	.	.	.	8ee	.	8gg#	.	.
.	.	.	.	8ff#	.	8aa	.	.
.	.	.	.	8b	.	8bb	.	.
8G#L	.	8BL	.	8cc#	.	8ccc#	.	.
8F#J)	.	8AJ)	.	8dd#J	.	8ddd#J	.	.
=104	=104	=104	=104	=104	=104	=104	=104	=104
8EL	.	8G#L	.	8ee	.	8eee	.	I
8E	.	8g#'	.	8r	.	8r	.	.
8F#'	f	8f#'	f	4dd#'	f	4bb'	f	V
8BB'	.	8d#'	.	.	.	.	.	.
8E'	.	8gn'	.	4cc#'	.	4aa#X'	.	#viio43/V
8E'J	.	8f#'J	.	.	.	.	.	.
=105	=105	=105	=105	=105	=105	=105	=105	=105
!LO:TX:b:i:t=sempre staccato	!	!LO:TX:b:i:t=sempre staccato	!	!	!	!	!	!
8D#L	.	8f#L	.	(8dd#XL	.	(8bbL	.	V6
8C#	.	8e	.	8eeJ)	.	8ccc#J)	.	.
8BB	.	8d#	.	4ff#'	.	4ddd#'	.	V
8E	.	8g#X	.	.	.	.	.	.
8D#	.	8f#	.	4bb'	.	4ddd#'	.	V6
8C#J	.	8eJ	.	.	.	.	.	.
=106	=106	=106	=106	=106	=106	=106	=106	=106
8BBL	.	8d#L	.	(8bbL	.	(8ddd#L	.	V
8FF#	.	8B	.	8ddd#J)	.	8fff#J)	.	.
8AA#X	.	8A#X	.	4ccc#'	.	4eee'	.	V7/V
8FF#	.	8F#	.	.	.	.	.	.
8BB	.	8B	.	4bb'	.	4ddd#'	.	V
8FF#J	.	8F#J	.	.	.	.	.	.
=107	=107	=107	=107	=107	=107	=107	=107	=107
8C#L	.	8eL	.	4aa#X'	.	4ccc#'	.	V43/V
8E	.	8g#X	.	.	.	.	.	.
8D#	.	8f#	.	4gg#'	.	4bb'	.	V6(4)
8E	.	8g#	.	.	.	.	.	.
8D#	.	8f#	.	4aa#'	.	4ccc#'	.	vii%7
8C#J	.	8eJ	.	.	.	.	.	.
=108	=108	=108	=108	=108	=108	=108	=108	=108
8BBL	.	8d#L	.	(2bb	.	(2ddd#	.	V
8AA#X	.	8c#	.	.	.	.	.	.
8BB	.	8d#	.	.	.	.	.	.
8C#	.	8e	.	.	.	.	.	.
8D#	.	8f#	.	[4b)	.	4bb)	.	V6
8BBJ	.	8D#J	.	.	.	.	.	.
=109	=109	=109	=109	=109	=109	=109	=109	=109
8E#XL	.	8G#L	.	4b]	.	(2ccc#	.	ii
8C#	.	8E#X	.	.	.	.	.	.
8F#	.	8A	.	4an	.	.	.	.
8G#	.	8B	.	.	.	.	.	.
8F#	.	8A	.	[4aa	.	8ddd#L	.	viio6
8EnJ	.	8G#J	.	.	.	8ccc#J)	.	IV64(+#7)
=110	=110	=110	=110	=110	=110	=110	=110	=110
8D#L	.	8F#L	.	4aa]	.	4.bb	.	I
8BBJ	.	8D#J	.	.	.	.	.	.
8E	ff	4G#	.	8gg#'L	.	.	.	.
8r	.	.	.	8aa'	ff	8ccc#'L	ff	.
8BB	.	8r	.	8gg#'	.	8bb'	.	V7
8r	.	8b'	ff	8ff#'J	.	8aa'J	.	.
=111	=111	=111	=111	=111	=111	=111	=111	=111
(8EL	.	8b'L	.	8ee'L	.	8gg#'L	.	I
8F#J)	.	8a'	.	8dd#'	.	8ff#'	.	.
4G#'	.	8g#'J	.	8ee'	.	8ee'	.	I6
.	.	8r	.	8a'	.	8cc#'	.	.
4G#'	.	4r	.	8g#'	.	8b'	.	.
.	.	.	.	8f#'J	.	8a'J	.	.
=112	=112	=112	=112	=112	=112	=112	=112	=112
(8G#L	.	4r	.	4e	.	4g#	.	.
8BJ)	.	.	.	.	.	.	.	.
8A	.	8e	.	4r	.	4r	.	IV
8r	.	8r	.	.	.	.	.	.
8G#	.	8B	.	4r	.	4r	.	I6
8r	.	8r	.	.	.	.	.	.
=113	=113	=113	=113	=113	=113	=113	=113	=113
8F#	.	(8eL	.	2.r	.	2.r	.	I
8r	.	8f#J)	.	.	.	.	.	.
8E	.	8g#	.	.	.	.	.	.
8r	.	8r	.	.	.	.	.	.
8F#	.	8g#	.	.	.	.	.	.
8r	.	8r	.	.	.	.	.	.
=114	=114	=114	=114	=114	=114	=114	=114	=114
(2G#	.	(8g#L	.	2.r	.	2.r	.	I
.	.	8bJ)	.	.	.	.	.	.
.	.	8a	.	.	.	.	.	.
.	.	8r	.	.	.	.	.	.
4E)	.	8g#	.	.	.	.	.	.
.	.	8r	.	.	.	.	.	.
=115	=115	=115	=115	=115	=115	=115	=115	=115
(2F#	sf	4f#	.	2.r	.	2.r	.	ii7
.	.	4e	.	.	.	.	.	.
8G#L	.	4f#	.	.	.	.	.	.
8F#J)	.	.	.	.	.	.	.	.
=116	=116	=116	=116	=116	=116	=116	=116	=116
8E	.	(2g#	sf	4r	.	2.r	.	I
8r	.	.	.	.	.	.	.	.
8BB	.	.	.	4ee'	ff	.	.	.
8r	.	.	.	.	.	.	.	.
[4E	sf	4e)	.	4b'	.	.	.	.
=117	=117	=117	=117	=117	=117	=117	=117	=117
8E]	.	(2f#	.	(8eeL	.	2.r	.	I
8r	.	.	.	8ff#J)	.	.	.	.
8BB	.	.	.	8gg#'	.	.	.	.
8r	.	.	.	8r	.	.	.	.
[4E	sf	8g#L	.	8gg#'	.	.	.	.
.	.	8f#J)	.	8r	.	.	.	.
=118	=118	=118	=118	=118	=118	=118	=118	=118
8E]	.	8e	.	(8gg#L	.	4r	.	.
8r	.	8r	.	8bbJ)	.	.	.	.
8BB	.	8B	.	8aa	.	8eee	ff	V7(4)
8r	.	8r	.	8r	.	8r	.	.
[4E	sf	[4e	sf	8gg#	.	8bb	.	I
.	.	.	.	8r	.	8r	.	.
=119	=119	=119	=119	=119	=119	=119	=119	=119
8E]	.	8e]	.	8ff#	.	(8eeeL	.	I(9)
8r	.	8r	.	8r	.	8fff#J)	.	.
8BB	.	8B	.	8ee	.	8ggg#	.	I64
8r	.	8r	.	8r	.	8r	.	.
[4E	sf	[4e	sf	8ff#	.	8ggg#	.	I(9)
.	.	.	.	8r	.	8r	.	.
=120	=120	=120	=120	=120	=120	=120	=120	=120
4E]	.	4e]	.	(2gg#	.	(8ggg#L	.	I
.	.	.	.	.	.	8bbbJ)	.	.
4BB	.	4B	.	.	.	4aaa'	.	.
[4E	sf	[4e	sf	4ee)	.	4ggg#'	.	.
=121	=121	=121	=121	=121	=121	=121	=121	=121
4E]	.	4e]	.	(2ff#	sf	4fff#'	.	I(9)
4BB	.	4B	.	.	.	4eee'	.	.
[4E	sf	[4e	sf	8gg#L	.	4fff#'	.	.
.	.	.	.	8ff#J)	.	.	.	.
=122	=122	=122	=122	=122	=122	=122	=122	=122
2.E_	>]	4e]	>	4ee	.	([4ggg#	>	I
!	!	!LO:TX:a:i:t=ligato	!	!	!	!	!	!
.	.	(4e	] p	4r	.	4ggg#]	] p	.
.	.	4B)	.	4r	.	4eee	.	.
=123	=123	=123	=123	=123	=123	=123	=123	=123
!LO:TX:a:i:t=sempre 	!	!	!	!	!	!	!	!
4E]	p	(8eL	.	2.r	.	2fff#	sf	I(9)
.	.	8f#J)	.	.	.	.	.	.
!LO:TX:b:i:t=ligato	!	!	!	!	!	!	!	!
(4e	.	[4g#'	.	.	.	.	.	.
4B)	.	4g#']	.	.	.	8ggg#L	.	I64
.	.	.	.	.	.	8fff#J)	.	.
=124	=124	=124	=124	=124	=124	=124	=124	=124
!LO:TX:b:i:t=sempre 	!	!	!	!	!	!LO:TX:b:i:t=sempre 	!	!
(8eL	.	(8g#L	.	2.r	.	4eee	.	I
8f#J)	.	8aJ)	.	.	.	.	.	.
!	!	!	!	!	!	!LO:TX:a:i:t=ligato	!	!
[4g#'	.	[4b'	.	.	.	(4ee	.	I6
4g#']	.	4b']	.	.	.	4b)	.	.
=125	=125	=125	=125	=125	=125	=125	=125	=125
(4.g#	.	(4.b	.	4r	.	(8eeL	.	.
.	.	.	.	.	.	8ff#J)	.	.
!	!	!	!	!LO:TX:a:i:t=ligato	!	!	!	!
.	.	.	.	(4ee	p	[4gg#'	.	.
8f#L	.	8aL	.	.	.	.	.	.
8e	.	8g#	.	4b)	.	4gg#']	.	I6
8d#J)	.	8f#J)	.	.	.	.	.	.
=126	=126	=126	=126	=126	=126	=126	=126	=126
(4c#	.	(4e	.	(8eeL	.	(8gg#L	.	vi
.	.	.	.	8gg#J	.	8bbJ	.	.
4B#X	.	4d#	.	4ff#	.	4aa	.	viio7/vi
4c#	.	4e	.	4ee)	.	4gg#)	.	vi
=127	=127	=127	=127	=127	=127	=127	=127	=127
4d#	.	4f#	.	(4dd#	.	(4ff#	.	viio
4e	.	4g#	.	4cc#	.	4ee	.	vi6
4d#)	.	4f#)	.	4dd#)	.	4ff#)	.	viio
=128	=128	=128	=128	=128	=128	=128	=128	=128
(4c#	.	(4e	.	(2ee	.	(2gg#	.	I64(9)
4Bn	.	4f#	.	.	.	.	.	.
4A	.	4gn	.	4cc#)	.	4ee)	.	IV7
=129	=129	=129	=129	=129	=129	=129	=129	=129
2.An)	.	4a	.	(2dd#	.	(2ff#	.	V2
.	.	4f#	.	.	.	.	.	.
.	.	4d#)	.	[4b)	.	8gg#L	.	.
.	.	.	.	.	.	8ff#J)	.	.
=130	=130	=130	=130	=130	=130	=130	=130	=130
4G#	.	4e	.	4b]	.	4ee	.	I6
(4F#	.	(4A	.	4r	.	4r	.	V43
4E	.	4G#	.	(4g#	.	(4ee	.	I
=131	=131	=131	=131	=131	=131	=131	=131	=131
4D#	.	4F#	.	2a	.	2ff#	.	IV(6)
4C#	.	4E	.	.	.	.	.	.
4D#)	.	4F#)	.	8bL	.	8gg#L	.	V65(4)
.	.	.	.	8aJ)	.	8ff#J)	.	.
=132	=132	=132	=132	=132	=132	=132	=132	=132
(4E	.	(4G#	.	4g#	.	4ee	.	I
4D#	.	4F#	.	4r	.	4r	.	.
4C#	.	4E	.	(4G#	.	(4e	.	vi
=133	=133	=133	=133	=133	=133	=133	=133	=133
2.BB)	.	4D#	.	2A	.	2f#	.	V7
.	.	4C#	.	.	.	.	.	.
.	.	4D#)	.	8BL	.	8g#L	.	.
.	.	.	.	8AJ)	.	8f#J)	.	.
=134	=134	=134	=134	=134	=134	=134	=134	=134
4E	.	4E	.	4G#	.	4e	.	I
4r	.	4G#	.	4B	.	4e	.	.
(4EE	.	4r	.	4r	.	4r	.	.
=135	=135	=135	=135	=135	=135	=135	=135	=135
2FF#	.	4r	.	4r	.	4r	.	.
.	.	4A	.	4B	.	4d#	.	V43
8GG#L	.	4r	.	4r	.	4r	.	.
8FF#J)	.	.	.	.	.	.	.	.
=136	=136	=136	=136	=136	=136	=136	=136	=136
4EE	.	4r	.	4r	.	4r	.	I
4r	.	4G#	.	4B	.	4e	.	.
4EE	.	4r	.	4r	.	4r	.	.
=137	=137	=137	=137	=137	=137	=137	=137	=137
(2FF#	.	4r	.	4r	.	4r	.	.
.	.	4B	.	4A	.	4d#	.	V43
8GGnL	.	4r	.	4r	.	4r	.	.
8FF#J)	.	.	.	.	.	.	.	.
=138	=138	=138	=138	=138	=138	=138	=138	=138
4EE'	.	4r	.	4r	.	4r	.	i
!LO:TX:b:i:t=dim.	!	!LO:TX:b:i:t=dim.	!	!LO:TX:b:i:t=dim.	!	!LO:TX:b:i:t=dim.	!	!
(8GGnL	.	4B	.	4Gn	.	4e	.	.
8FF#J	.	.	.	.	.	.	.	.
4EE')	.	4r	.	4r	.	4r	.	.
=139	=139	=139	=139	=139	=139	=139	=139	=139
(8GGnL	.	4B	.	4Gn	.	4e	.	.
8FF#J	.	.	.	.	.	.	.	.
4EE')	.	4r	.	4r	.	4r	.	.
(8GGL	.	4Gn	.	4B	.	4e	.	.
8FF#J	.	.	.	.	.	.	.	.
=140	=140	=140	=140	=140	=140	=140	=140	=140
4EE')	.	4r	.	2.r	.	4r	.	i\\
(8GGnL	pp	(8GnL	pp	.	.	(8gnL	pp	i
8FF#J	.	8F#J	.	.	.	8f#J	.	.
4EE')	.	4E')	.	.	.	4e')	.	.
=141	=141	=141	=141	=141	=141	=141	=141	=141
!	!	!	!	!	!	!LO:TX:b:Bi:t=Da capo il minore ma senza replica ed allora ancora una volta il trio;\ne dopo di nuovo da capo il minore senza replica	!	!
(8GGnL	.	(8GnL	.	2.r	.	(8gnL	.	.
8FF#J	.	8F#J	.	.	.	8f#J	.	.
4EE')	.	4E')	.	.	.	4e')	.	.
(8GGL	.	(8GL	.	.	.	(8gL	.	.
8FF#J)	.	8F#J)	.	.	.	8f#J)	.	.
==	==	==	==	==	==	==	==	==
*-	*-	*-	*-	*-	*-	*-	*-	*-
!!!system-decoration: [(s1,s2,s3,s4)]
!!!YEM:  